X:1
T:El tambor de granaderos
T:El tambor de granaderos, preludio
T:Adaptación a piano de A. Santamaría
T:Ruperto Chapí
C:Ruperto Chapí
%%score { ( 1 4 ) | ( 2 3 ) }
L:1/8
Q:1/4=120
M:2/4
K:A
V:1 treble nm="Piano" snm="Pno."
V:4 treble 
V:2 bass 
V:3 bass 
V:1
"^Allº. Moderato" z4 | z4 | z4 | z4 | z4 | z4 | z4 |!ff! [Aac'] z [dad'] z | %8
 [eae'][faf'] z [eae'] | .[cac'].[dad'] z .[degb] | [degb][cea] z2 | [Aac'] z [dad'] z | %12
 .[eae'].[faf'] z .[eae'] | .[cac'].[dad'] z .[degb] | .[cea] z z2 | [Geg] z [Aea] z | %16
 [Beb][cec'] z [Beb] | [Beg][Aea] z [AB^df] | [AB^df][GBe] z2 | [Geg] z [Aea] z | %20
 [Beb][cec'] z [Beb] | [Beg][Aea] z [Ac^df] | [GBe] z z2 | [cac'] z [dad'] z | %24
 [eae'][faf'] z [eae'] | [cac'][dad'] z [degb] | [degb][cea] z2 | [cac'] z [dad'] z | %28
 [eae'][a=c'a'] z [ea^c'e'] | [cac'][dfad'] z [degb] | [cea] z z2 | [EG] z [EA] z | %32
 [EB][Ec] z [EB] | [EG][A,EA] z [A,B,^DF] | [A,B,^DF][G,B,E] z2 |"^pág. 2" [EG] z [EA] z | %36
 [EB][Ec] z [EB] | [EG][A,EA] z [A,^DF] | [G,B,E] z z2 |!pp! [A,C] z [A,D] z | [A,E][A,F] z [A,E] | %41
 [A,C][A,D] z2 | z4 | [A,C] z [A,D] z |!f! [A,E][=CFA] z2 | z2!pp! [A,CE] z | [A,C] z z2 | %47
!f! D z z2 | z4 | z4 | z2 z!ff! e/e/ | [Aca] z z e/e/ || %52
"^Andante\na la mitad del mov."[Q:1/4=100] [Aca]!p! AB^B ||[M:4/4] z e'/e'/ a' e'/e'/ a' z z2 | %54
 z d'/d'/ a' d'/d'/ a' z z2 | z g/g/ =c' g/g/ c' z z2 | E!pp! G/G/ =c z z G/G/ c z || %57
[K:F][M:3/4]"^Allº. Moderato"[Q:1/4=120] z2 z2 .g.g | .c'2 z2 .g.g | .c'2 z2 .g.g | .c'2 z2 z2 | %61
 z2 z2!p! .c.c | f z z .f.g.a | .b z z2 .g z | .c' z .c'.c'.c'.c' | azf z z2 | .f.g.a.f.g.a | %67
 .b z z .g.a.b | .c'.c'.c'.c'.c'.c' |"^pág. 3" .az.f z z2 |!p!{de} (d^cdefd | e4 c2) | %72
{Bc} (BABcdB | c4 A2) |{_G_A} (GFGAB_d | c4 f2) | (CDEFG^G | A4 F2) |!p!{de} (d^cdefd | e4 c2) | %80
{Bc} (BABcdB | c4 A2) |{_G_A} (GFGAB_d | c4 f2) | CDEFG^G | z2 a2 a2 | !fermata![ee']4!p! AA | %87
 .d z z .d.e.^f | .g z z2 .e z | .a z .a.a.a.a | .^fz.d z z2 | .d.e.=f.d.e.f | .g z c' z .C.C | %93
 .F z z .F.G.A | .B z z2 .G z | .c z .c.c.c.c | .Az.F z z2 |!p!{de} (d^cdefd | e4 c2) | %99
{Bc} (BABcdB |"^pág. 4" c4 A) z |{_G_A} (GFGAB_d | c4 f2) | (CDEFG^G | A4 f2) | (CDEFG^G | %106
 A).F.G.A.B.=B | .c z z2 .[GA^c] z | .[^FAd] z z2 .D.D | .G z z .G.A.B | .c z z .C.D.E | %111
 .F z .A.c.d.e | f z z!pp! a/.e/ .g.f | z2 z .a/.e/ .gf | z2 z .a/.e/ .gf | z2 z a/.e/ .g.f || %116
[M:2/4]"^El mismo tiempo"!<(! z a/.e/ .g.f | z a/.e/ .g.f!<)! | z!ff! a/.e/ .g.f | z!pp! f z f | %120
 z f z f | z f z f ||[K:D] z!pp! .f/.c/ ed | A/A/A/A/ BB | c/c/c/c/ ee | B/B/B/B/ dd | Af/c/ ed | %127
 A/A/A/A/ BB | c/c/c/c/ ee | B/d/B/d/ ce | z2!ff! [dfad'] z | z!p! .f/.c/ .e.d | %132
 [G,B,E] z [dd'] z | z .f/.c/ .e.d |"^pág. 5" [A,=CF] z [dad'] z |!<(! z!p! .f/.c/ .e.d | %136
 z .f/.c/ .e.d | z .f/.c/ .e.d!<)! | z!>(! .f/.c/ .e.d!>)! | z!p! d z d | z d z d | z d z d | %142
 z!pp! d/A/ =c_B | =F/F/F/F/ GG | A/A/A/A/ =cc | A/A/A/A/ _BB | =Fd/A/ =c_B | %147
!<(!"^cresc." [D=F]/[DF]/[DF]/[DF]/ [DG][DG]!<)! | [D^FA]^f/c/ ed | %149
!<(! [=FA]/[FA]/[FA]/[FA]/ [FB][FB]!<)! | [=FA=c] a/e/ g=f | %151
!<(! [A=c]/[Ac]/[Ac]/[Ac]/ [Ad][Ad]!<)! | [A^ce] c'/^g/ ba |!<(! (^g/a/b/c'/ d'/e'/f'/^g'/!<)! | %154
 a') (=g'/^d'/) .f'.e' |!ff! ag'/^d'/ f'e' | a!f! (f'/c'/) .e'.d' | a/A/a/A/ [Bb][Bb] | %158
 c'/c/c'/c/ [ee'][ee'] | b/B/b/B/ [dd'][dd'] | [Aa]f'/c'/ e'd' |!<(! af'/c'/ e'd' | %162
 bg'/^d'/ f'e'!<)! |!<(! (c/d/e/f/ g/a/b/c'/)!<)! |!f! d'd'/d/ d'/d/d'/d/ | d'd'/d/ d'/d/d'/d/ | %166
!<(! d'd'/d/ d'/d/d'/d/ | d'/d/d'/d/ d'/d/d'/d/!<)! ||[K:Bb]"^pág. 6"!ff! [dbd'] z [ebe'] z | %169
 .[fbf'].[gbg'] z .[fbf'] | .[dbd'].[ebe'] z .[eac'] | .[eac'].[dfb] z2 | [dbd'] z [ebe'] z | %173
 [fbf'][gbg'] z [fbf'] | [dbd'][ebe'] z [eac'] | [dfb] z z2 | [Afa] z [Bfb] z | %177
 [cfc'][dfd'] z [cfc'] | [Afa][Bfb] z [B=eg] | [B=eg][Acf] z2 | [Afa] z [Bfb] z | %181
 [cfc'][dfd'] z [cfc'] | [Afa][Bfb] z [B=eg] | [Acf] z z2 | [dbd'] z [ebe'] z | %185
 [fbf'][gbg'] z [fbf'] | [dbd'][ebe'] z [eac'] | [eac'][dfb] z2 | [Fdf] z [Gd=eg] z | %189
 [Ad^fa][d=fbd'] z [Ad^fa] | [^Fd^f][G=Bdg] z [GA^c=e] ||[K:D] [FAd]f/c/ ed | Af/c/ ed | %193
 Bg/^d/ fe | (c/d/e/f/ g/a/b/c'/) | d'f'/c'/ e'd' | af'/c'/ e'd' | bg'/^d'/ f'e' | %198
 (c/d/e/f/ g/a/b/c'/) | d'f'/c'/ e'd' | z f'/c'/ e'd' ||[M:3/4] z f'/c'/ e'd' z [dd'] | %202
 z [dd']z[dd']z!ff![dd'] | z [dgbd']z[dgbd']z[dgbd'] |"^pág. 7" z [gae'] z [gae'] z [gae'] | %205
 z [fa=e'f'] z [fae'f'] z [fae'f'] | z [gbd'] z [gbd'] z [gbd'] | z [gbd'] z [gbd'] z [gbd'] | %208
 z [gae']z[gae']z[gae'] |!p!!<(! ([gb=f'][Bb][=c=c'][^c^c'][dd'][^d^d'])!<)! || %210
[M:2/4] [^gbe']/e/e'/e/ e'/e/e'/e/ | [c=c'e'] z [=fc'=f'] z | [g=c'g'][ac'a'] z [gc'g'] | %213
 [e=c'e'][=fc'=f'] z [fbd'] | [=fbd'][eg=c'] z2 | [Geg] z [Ae^fa] z | [Be^gb][e=ge'] z [Be^gb] | %217
 [^Ge^g][Aea] z [AB^df] | [^GBe] (^g/^d/) .f.e | B(^g/^d/) .f.e | ca/^e/ .^gf | %221
 (^d/e/f/^g/ a/b/c'/d'/ | e')(^g'/^d'/) .f'.e' | b(^g'/^d'/) .f'.e' | c'(a'/^e'/) .^g'.f' | %225
 (^d/e/f/^g/ a/b/c'/^d'/) ||[M:3/4]!ff! e'[ee'] z [ee'] z [ee'] | z [eac'e']z[eac'e']z[eac'e'] | %228
 z [abf'] z [abf'] z [abf'] | z [^gd'e'] z [gd'e'] z [gd'e'] | z [ac'e'] z [ac'e'] z [ac'e'] | %231
 [ac'e'] z [ac'e'] z [ac'e'] z | [abf']([^A^a][Bb][cc'][dd'][^d^d'] | %233
 [ee'])([^d^d'][ee'][^e^e'][ff'][^g^g']) ||[M:2/4] [aa']a/A/ a/A/a/A/ | %235
"^pág. 8"!ff! [A=fa] z [_Bf_b] z | [=c=f=c'][dfd'] z [cfc'] | [A=fa][_Bf_b] z [B=ceg] | %238
 [_B=ceg][Ac=f] z2 | [=ca=c'] z [dabd'] z | [ea^c'e'][a=c'a'] z [ea^c'e'] | %241
 [cac'][dfad'] z [de^gb] | [cea](c'/^g/) .b.a | e(c'/^g/) .b.a | f(d'/^a/) .c'.b | %245
 (^g/a/b/c'/ d'/e'/f'/^g'/ | a')(c'/^g/) .b.a | e(c'/^g/) .b.a | f(d'/^a/) .c'.b | %249
 (^g/a/b/c'/ d'/e'/f'/^g'/ | a')(=g'/^d'/) .f'.e' | a(g'/^d'/) .f'.e' | %252
 a!fff!([ff']/c'/) .[ee'].[dd'] | a/A/a/A/ [Bb][Bb] | c'/c/c'/c/ [ee'][ee'] | b/B/b/B/ [dd'][dd'] | %256
 [Aa]([ff']/c'/) [ee'][dd'] | a/A/a/A/ [Bb][Bb] | c'/c/c'/c/ [ee'][ee'] | %259
 (b/[dd']/)(b/[dd']/) [cc'][ee'] | z2 ([A=c^d]/f/)([Acd]/f/) | ([^ce]/g/)([ce]/g/) .[^df][fa] | %262
 z2 ([eg]/_b/)([eg]/b/) | ([^df]/a/)([df]/a/) .[eg][g_b] | z ([^df]/a/) .[eg].[g_b] | %265
 z ([^df]/a/) .[eg].[g_b] | z ([d=f^g]/=b/) ([dfg]/b/)([dfg]/b/) | %267
 [d=f^g]/b/[dfg]/b/ [dfg]/b/[dfg]/b/ ||[M:3/4] [d^fa][Adfa]!fff![Adfa][Adfa][Adfa][Adfa] | %269
 [Adfa][Adfa][Adfa][Adfa][Adfa][Adfa] | [Bdeb][Bdeb][Bdeb][Bdeb][Bdeb][Bdeb] | %271
 [Acga][Acga][Acga][Acga][Acga][Acga] | [Adfa][Adfa][Adfa][Adfa][Adfa][Adfa] | %273
 [Adfa][Adfa][Adfa][Adfa][Adfa][Adfa] | [Bdeb](^defg^g | a)([^G^g][Aa][^A^a][Bb][cc'] || %276
[M:2/4] ([dd'])[^d^d'][ee'][^e^e']) | f'/f/f'/f/ g'/g/g'/g/ |!8va(! [aa'][_b_b'] z [bb']!8va)! | %279
 z"^loco." [=B=b][cc'][dd'] | !/-!f'2 f2 | f'(a/b/ c'/d'/e'/f'/ | g'/)g/g'/g/ ^g'/^g/g'/g/ | %283
 a'/a/a'/a/ [gac']/c/[gac']/c/ | [dfad'](f'/c'/) .e'.d' | z (=f'/c'/) .e'.d' | z (^f'/c'/) .e'.d' | %287
 z (=f'/c'/) .e'.d' | (^f'/c'/)(e'/d'/) (f'/c'/)(e'/d'/) | (^f'/c'/)(e'/d'/) (f'/c'/)(e'/d'/) | %290
 !/-!f'2 f2 | (f'/d'/a/f/ d/A/F/D/ | A,) F/A/ d/F/A/d/ | f z [cega] z | [dfad'] z z3/2 [faf']/ | %295
 [faf'] z z3/2 D/ |!<(! D4- | D4- | D!<)! z [dfad'] z | D7/2 D/ | !>!D z z2 |] %301
V:2
!pp!!<(! !//-!A,,,2 A,,2 | A,,,2 z2 | !//-!A,,,2 A,,2 | A,,,2 z2 | !//-!A,,,2 A,,2 | %5
 !//-!A,,,2 A,,2 | !//-!A,,,2 A,,2!<)! | [A,,,A,,] z [B,,,B,,] z | .[C,,C,].[D,,D,] z .[C,,C,] | %9
 .[A,,,A,,].[F,,F,] z .[E,,E,] | .[E,,E,].[A,,,A,,] z2 | [A,,,A,,] z [B,,,B,,] z | %12
 .[C,,C,].[D,,D,] z .[C,,C,] | .[A,,,A,,].[F,,F,] z .[E,,E,] | .[A,,,A,,] z z2 | %15
 [E,,E,] z [F,,F,] z | [G,,G,][A,,A,] z [G,,G,] | [E,,E,][C,,C,] z [B,,,B,,] | %18
 [B,,,B,,][E,,E,] z2 | [E,,E,] z [F,,F,] z | [G,,G,][A,,A,] z [G,,G,] | %21
 [E,,E,][C,,C,] z [B,,,B,,] | [E,,E,][D,,D,][C,,C,][B,,,B,,] | [A,,,A,,] z [B,,,B,,] z | %24
 [C,,C,][D,,D,] z [C,,C,] | [A,,,A,,][F,,F,] z [E,,E,] | [E,,E,][A,,,A,,] z2 | %27
 [A,,,A,,] z [B,,,B,,] z | [C,,C,][^D,,^D,] z [E,,E,] | [F,,F,][B,,,B,,] z [E,,E,] | %30
 [A,,,A,,] z z2 | [E,,E,] z [F,,E,] z | [G,,E,][A,,E,] z [G,,E,] | [E,,E,][C,E,] z [B,,F,] | %34
 [B,,F,][E,,E,] z2 | [E,,E,] z [F,,E,] z | [G,,E,][A,,E,] z [G,,E,] | [E,,E,][C,E,] z [B,,F,] | %38
 .E,.D,.C,.B,, |!pp! [A,,C,] z [B,,D,] z | [C,E,][D,F,] z [C,E,] | %41
"_Biblioteca Digital Hispánica: http://bdh-rd.bne.es/viewer.vm?id=0000094241&" [A,,E,][F,,D,] z [G,B,] | %42
 .[G,B,].[E,A,] z2 | [A,,C,] z [B,,D,] z | [C,E,][^D,A,] z2 | z2!pp! E, z | F, z z2 | %47
!f! [F,A,] z z2 | z4 |!pp!!pp! [E,G,B,] z z2 | A, x x2 | [A,,A,] z z E,/E,/ || [A,,A,] z z2 || %53
[M:4/4] ((([A,,E,=G,]8 | [A,,D,=F,A,]6))) [B,,F,_A,]2 | (((([=C,E,=G,_B,]4 [C,E,G,B,])))) z z2 | %56
 z2 z =G,, .[=C,,=C,] z z .G,, ||[K:F][M:3/4] .[C,,C,] z z4 | z6 | z6 | z2 z2!pp! C, z | F, z z4 | %62
 F, z x z A, z | F, z z4 | F, z z4 | F, z z4 | F, z x z A, z | F, z z4 | F, z z4 | F, z z4 | %70
 B,, z .F.E .D z | A,, z .C.D .E z | G,, z .D.C .B, z | A,, z .C.D .E z | B,,z[B,_D]z[B,D_G] z | %75
 C,z[A,CF]z[A,CF] z | C,z[G,B,]z[G,B,] z | F,z[A,C]z[A,C] z | B,, z .F.E .D z | A,, z .C.D .E z | %80
 G,, z .D.C .B, z | A,, z .A,.B, .C z | B,,z[B,_D]z[B,D_G] z | B,,z[A,CF]z[A,CF] z | %84
 C,z[G,B,]z[G,B,] z | z2 [E,G,A,]2 [E,G,A,]2 | !fermata![^C,E,G,A,]4 A,, z | D,z.[A,^F]z.[^F,D] z | %88
 D,z[G,=B,E]z[G,B,E] z | D,z[A,^CG]z[A,CG] z | D,z[A,D^F]z[A,DF] z | D, z [A,D=F]z[A,DF] z | %92
 [E,G,C] z z2 [C,E,B,] z | F,, z [F,A,]z[A,C] z | F,,z[G,B,]z[B,D] z | F,,z[E,B,]z[B,C] z | %96
 F,,z[F,A,]z[A,C] z | B,, z .F.E .D z | A,, z .C.D .E z | G,, z .D.C .B, z | A,, z .A,.B, .C z | %101
 [B,,,B,,] z [B,,_D,_G,]z[B,,D,G,] z | C,, z [A,,C,F,]z[A,,C,F,] z | [C,F,A,]4 z2 | %104
 C,, z [A,,C,F,]z[A,,C,F,] z | [C,F,A,]4 z2 | z6 | z2 z2!pp! _E z | D z z2 z2 | %109
 [B,,,B,,] z [D,G,B,]z[D,G,B,] z | C,, z [G,B,]z[G,B,] z | F,, z [F,B,] z [C,B,] z | %112
 [F,A,] F,,/F,,,/ F,, z z2 | [F,B,_D] F,,/F,,,/ F,, z z2 | [E,A,C] F,,/F,,,/ F,, z z2 | %115
 [F,B,_D] F,,/F,,,/ F,, z z2 ||[M:2/4] [F,A,C] z z2 | [F,A,C] z z2 | [F,A,C] z z2 | F,,, z F,,, z | %120
 F,,, z F,,, z | F,,, z F,,, z ||[K:D] D,[F,A,]/[F,A,]/ A,,!>![F,A,] | %123
 D,[F,A,]/[F,A,]/ A,,!>![F,A,] | E,[G,A,]/[G,A,]/ A,,!>![G,A,] | E,[G,A,]/[G,A,]/ A,,!>![G,A,] | %126
 D, z !>![F,A,]2 | D,[F,A,]/[F,A,]/ A,,!>![F,A,] | E,[G,A,]/[G,A,]/ A,,[G,A,] | %129
 E,[G,A,]/[G,A,]/ A,,[G,A,] | D,, z [D,F,A,D] z | z4 | [D,,D,] z[K:treble] [DEGB] z |[K:bass] z4 | %134
 [D,,D,] z[K:treble] [DFA=c] z | z4 | [DFA=c] z z2 | [DFA=c] z z2 | [DFA=c] z z2 | %139
[K:bass] D,, z D,, z | D,, z D,, z | D,, z D,, z | _B,,[_B,D]/[B,D]/ =F,[B,D] | %143
 _B,,[_B,D]/[B,D]/ =F,[B,D] | =C,[A,_E]/[A,E]/ =F,[A,E] | =C,[A,_E]/[A,E]/ =F,[A,E] | %146
 _B,, z !>![=F,_B,D]2 | z (D,/A,,/) =C,_B,, | A,, z !>![A,DF]2 | z (=F,/^C,/) .E,.D, | %150
 =C, z[K:treble] [=CFA]2 |[K:bass] z (A,/E,/) .G,.=F, | E, z[K:treble] [EAc]2 | %153
[K:bass] z ([D,,D,]/^A,,/) .[C,,C,].[B,,,B,,] | [A,,,A,,] z z2 | [A,,C,E,G,A,] z z2 | %156
 [A,,C,E,G,A,] z z2 | D,[F,A,D]/[F,A,D]/ A,,!>![F,A,D] | E,[G,A,C]/[G,A,C]/ A,,!>![G,A,C] | %159
 E,[G,A,C]/[G,A,C]/ A,,!>![G,A,C] | D, z !>![A,DF]2 | F,[A,D] D,[^A,D] | G,[B,D] E,[G,B,D] | %163
 A,,[G,A,C] A,,[G,A,C] | [D,F,A,D] z z2 | [D,F,A,D] z z2 | [D,F,A,D] z z2 | z4 || %168
[K:Bb] [B,,,B,,] z [C,,C,] z | .[D,,D,].[E,,E,] z .[D,,D,] | .[B,,,B,,].[G,,G,] z .[F,,F,] | %171
 .[F,,F,]B,,,/B,,/ B,,,/B,,/B,,,/B,,/ | [B,,,B,,] z [C,,C,] z | [D,,D,][E,,E,] z [D,,D,] | %174
 [B,,,B,,][G,,G,] z [F,,F,] | [B,,,B,,]F,,/F,/ F,,/F,/F,,/F,/ | [F,,F,] z [G,,G,] z | %177
 [A,,A,][B,,B,] z [A,,A,] | [F,,F,][D,,D,] z [C,,C,] | [C,,C,]F,,/F,/ F,,/F,/F,,/F,/ | %180
 [F,,F,] z [G,,G,] z | [A,,A,][B,,B,] z [A,,A,] | [F,,F,][D,,D,] z [C,,C,] | %183
 F,,/F,/_E,,/E,/ D,,/D,/C,,/C,/ | [B,,,B,,] z [C,,C,] z | [D,,D,][E,,E,] z [D,,D,] | %186
 [B,,,B,,][G,,G,] z [F,,F,] | [F,,F,]B,,,/B,,/ B,,,/B,,/B,,,/B,,/ | [B,,,B,,] z [B,,B,] z | %189
 [A,,A,][^G,,^G,] z [A,,A,] | [=B,,=B,][E,,E,] z [A,,A,] ||[K:D] [D,F,A,][D,F,A,][D,F,A,][D,F,A,] | %192
 [D,F,A,][D,F,A,][D,F,A,][D,F,^A,] | [D,G,B,][D,G,B,][D,G,B,][D,G,_B,] | %194
 [D,G,A,][D,G,A,][D,G,A,][D,G,A,] | [D,F,A,][D,F,A,][D,F,A,][D,F,A,] | %196
 [D,F,A,][D,F,A,][D,F,A,][D,F,^A,] | [D,G,B,][D,G,B,][D,G,B,][D,G,_B,] | %198
 [D,G,A,][D,G,A,][D,G,A,][D,G,A,] | [D,F,A,] z z2 | [D,F,A,D] z z2 || %201
[M:3/4] [D,F,A,D] z z2!ff! D,, z | D,, z D,, z!8vb(! D,,"_ad libitum"D,,!8vb)! | G,3 .G,.A,.B, | %204
 =C4 !>!A,2 | !>!D2 DDDD | !>!B,2 !>!G,2 z2 | .G,.A,.B,.G,.A,.B, | =C3 [A,,A,][B,,B,][=C,C] | %209
 ([D,D][=C,=C][B,,B,][A,,A,][G,,G,][=F,,=F,]) ||[M:2/4] [E,,E,] z z2 | [=E,,=C,] z [D,,D,] z | %212
 [E,,E,][=F,,=F,] z [E,,E,] | [=C,,=C,][A,,A,] z [G,,G,] | [G,,G,]=C,,/=C,/ C,,/C,/C,,/C,/ | %215
 [=C,,=C,] z [C,,C,] z | [B,,,B,,][^A,,,^A,,] z [B,,,B,,] | [E,,E,][F,,,F,,] z [B,,,B,,] | %218
 [E,,E,] [E,^G,B,][E,G,B,][E,G,B,] | [E,^G,B,][E,G,B,][E,G,B,][E,G,^B,] | %220
 [E,A,C][E,A,C][E,A,C][E,A,=C] | [E,A,B,][E,A,B,][E,A,B,][E,A,B,] | %222
 [E,^G,B,][E,G,B,][E,G,B,][E,G,B,] | [E,^G,B,][E,G,B,][E,G,B,][E,G,^B,] | %224
 [E,A,C][E,A,C][E,A,C][E,A,=C] | [E,A,B,][E,A,B,][E,A,B,][E,A,B,] || %226
[M:3/4] [E,G,B,] z E,, z!ff!!8vb(! E,,"_ad libitum"E,,!8vb)! | A,3 .A,.B,.C | D4 !>!B,2 | %229
 !>!E2 EEEE | !>!C2 !>!A,2 z2 | A,B,CA,B,C | D3 CB,A, | ^G,F,E,D,C,B,, ||[M:2/4] A,, z z2 | %235
 [=F,,=F,] z [G,,G,] z | [A,,A,][_B,,_B,] z [A,,A,] | [=F,,=F,][D,,D,] z [=C,,=C,] | %238
 [=C,,=C,]=F,,/=F,/ F,,/F,/F,,/F,/ | [=F,,=F,] z [F,,F,] z | [E,,E,][^D,,^D,] z [E,,E,] | %241
 [^F,,^F,][B,,,B,,] z [E,,E,] | [A,,,A,,][A,,C,E,] [A,,C,E,][A,,C,E,] | %243
 [A,,C,E,][A,,C,E,][A,,C,E,][A,,C,^E,] | [A,,D,F,][A,,D,F,][A,,D,F,][A,,D,=F,] | %245
 [A,,D,E,][A,,D,E,][A,,D,E,][A,,D,E,] | [A,,C,E,][A,,C,E,][A,,C,E,][A,,C,E,] | %247
 [A,,C,E,][A,,C,E,][A,,C,E,][A,,C,^E,] | [A,,D,F,][A,,D,F,][A,,D,F,][A,,D,=F,] | %249
 [A,,D,E,][A,,D,E,][A,,D,E,][A,,D,E,] | [A,,C,E,A,] z z2 | [A,,C,E,G,A,] z z2 | %252
 [A,,C,E,G,A,] z z2 |!fff! !>![D,,D,][F,A,D] !>!A,,[F,A,D] | !>!E,[G,A,C] !>!A,,[G,A,C] | %255
 !>!E,[G,A,C] !>!A,,[G,A,C] | !>!E,[F,A,D] !>!A,,[F,A,D] | !>!D,[F,A,D] !>!A,,[F,A,D] | %258
 !>!E,[G,A,C] !>!A,,[G,A,C] | !>!E,[G,A,C] !>!A,,[G,A,C] |!fff! A,,,2 (([A,,-^D,F,]2 | %261
 [A,,E,G,]))[A,,E,G,] z [A,,F,A,] | !>!A,,,2 (([A,,-E,G,]2 | %263
 [A,,^D,F,]))[A,,F,A,] z !arpeggio![A,,G,_B,] | z [^B,,^D,F,] !>![C,E,G,]2 | %265
 z [^B,,^D,F,] !>![C,E,G,]2 | A,,,2 [A,,D,=F,]2- | [A,,D,=F,]4 || %268
[M:3/4] [A,,D,^F,] z z2!8vb(! A,,,A,,,!8vb)! | D,3 D,E,F, | G,4 !>!E,2 | !>!A,2 A,A,A,A, | %272
 !>!F,2 !>!D,2 z2 | D,E,F,D,E,F, | G,3 F,E,D, | C,B,,A,,G,,F,,E,, ||[M:2/4] D,, z z2 | %277
 [D,F,D] z [D,F,D] z | [F,A,D][G,_B,D] z [G,B,D] | z [^G,=B,D][G,B,E][G,B,=F] | !/-![A,D]2 F2 | %281
 [A,DF] z (A,/B,/C/D/) | [E,E][D,D][C,C][B,,B,] | [A,,A,][G,,G,][F,,F,][E,,E,] | %284
 [D,,D,] z z [D,F,A,] | [D,=F,_B,] z z [D,F,B,] | [C,^F,A,] z z [D,F,A,] | %287
 [D,=F,_B,] z z [D,F,B,] | [D,^F,A,][D,=F,_B,][D,^F,A,][D,=F,B,] | %289
 [D,^F,A,][D,=F,_B,][D,^F,A,][D,=F,B,] | !/-![D,^F,A,]2 D2 | [D,F,A,D] z z2 | %292
 z F,/A,/ D/A,/F,/D,/ | A,, z [A,,C,E,A,] z | [D,F,A,D] z z3/2 [D,F,A,D]/ | [D,F,A,D] z z3/2 D,,/ | %296
 !/-!D,,2 D,2 | !/-!D,,2 D,2 | [D,,D,] z [D,F,A,D] z | [D,,D,]7/2 [D,,D,]/ | [D,,D,] z z2 |] %301
V:3
 x4 | x4 | x4 | x4 | x4 | x4 | x4 | x4 | x4 | x4 | x4 | x4 | x4 | x4 | x4 | x4 | x4 | x4 | x4 | %19
 x4 | x4 | x4 | x4 | x4 | x4 | x4 | x4 | x4 | x4 | x4 | x4 | x4 | x4 | x4 | x4 | x4 | x4 | x4 | %38
 x4 | x4 | x4 | x2 x [E,,D,] | [E,,D,][A,,C,] x2 | x4 | x4 | x4 | x4 | [B,,,B,,] x x2 | x4 | %49
 [E,,D,] x x2 | [A,,C,E,] z z E,/E,/ | x4 || x4 ||[M:4/4] x8 | x8 | x8 | x8 ||[K:F][M:3/4] x6 | %58
 x6 | x6 | x6 | x6 | x6 | x6 | x6 | x6 | x6 | x6 | x6 | x6 | x6 | x6 | x6 | x6 | x6 | x6 | x6 | %77
 x6 | x6 | x6 | x6 | x6 | x6 | x6 | x6 | ^C,6 | x6 | x6 | x6 | x6 | x6 | x6 | x6 | x6 | x6 | x6 | %96
 x6 | x6 | x6 | x6 | x6 | x6 | x6 | x6 | x6 | x6 | x6 | x6 | x6 | x6 | x6 | x6 | x6 | x6 | x6 | %115
 x6 ||[M:2/4] x4 | x4 | x4 | x4 | x4 | x4 ||[K:D] x4 | x4 | x4 | x4 | x4 | x4 | x4 | x4 | x4 | x4 | %132
 x2[K:treble] x2 |[K:bass] x4 | x2[K:treble] x2 | x4 | x4 | x4 | x4 |[K:bass] x4 | x4 | x4 | x4 | %143
 x4 | x4 | x4 | x4 | x4 | x4 | x4 | x2[K:treble] x2 |[K:bass] x4 | x2[K:treble] x2 |[K:bass] x4 | %154
 x4 | x4 | x4 | x4 | x4 | x4 | x4 | x4 | x4 | x4 | x4 | x4 | x4 | x4 ||[K:Bb] x4 | x4 | x4 | x4 | %172
 x4 | x4 | x4 | x4 | x4 | x4 | x4 | x4 | x4 | x4 | x4 | x4 | x4 | x4 | x4 | x4 | x4 | x4 | x4 || %191
[K:D] x4 | x4 | x4 | x4 | x4 | x4 | x4 | x4 | x4 | x4 ||[M:3/4] x6 | x4!8vb(! x2!8vb)! | x6 | x6 | %205
 x6 | x6 | x6 | x6 | x6 ||[M:2/4] x4 | x4 | x4 | x4 | x4 | x4 | x4 | x4 | x4 | x4 | x4 | x4 | x4 | %223
 x4 | x4 | x4 ||[M:3/4] x4!8vb(! x2!8vb)! | x6 | x6 | x6 | x6 | x6 | x6 | x6 ||[M:2/4] x4 | x4 | %236
 x4 | x4 | x4 | x4 | x4 | x4 | x4 | x4 | x4 | x4 | x4 | x4 | x4 | x4 | x4 | x4 | x4 | x4 | x4 | %255
 x4 | x4 | x4 | x4 | x4 | x4 | x4 | x4 | x4 | A,,,3 A,, | A,,,3 A,, | x4 | x4 || %268
[M:3/4] x4!8vb(! x2!8vb)! | x6 | x6 | x6 | x6 | x6 | x6 | x6 ||[M:2/4] x4 | x4 | x4 | x4 | x4 | %281
 x4 | x4 | x4 | x4 | x4 | x4 | x4 | x4 | x4 | x4 | x4 | x4 | x4 | x4 | x4 | x4 | x4 | x4 | x4 | %300
 x4 |] %301
V:4
 x4 | x4 | x4 | x4 | x4 | x4 | x4 | x4 | x4 | x4 | x4 | x4 | x4 | x4 | x4 | x4 | x4 | x4 | x4 | %19
 x4 | x4 | x4 | x4 | x4 | x4 | x4 | x4 | x4 | x4 | x4 | x4 | x4 | x4 | x4 | x4 | x4 | x4 | x4 | %38
 x4 | x4 | x4 | x4 | x4 | x4 | x4 | x4 | x4 | x4 | x4 | x4 | x4 | x4 || x4 ||[M:4/4] c4- cd^de | %54
 a4- a(=fed | c4-) cB_B=G | x8 ||[K:F][M:3/4] x2 x2 .G.G | c2 z2 .G.G | .c2 z2 .G.G | c2 x2 x2 | %61
 x2 [CFA]z[CFA] z | x2 [CFA]z[CF] z | x2 [B,DG]z[B,DG] x | z z [CEB]z[CEB] z | x x [CFA]z[CFA] x | %66
 x2 [CFA]z[CF] z | x2 [B,DG]z[B,DG] z | x2 [CEB]z[CEB] z | z z [CFA]z[CFA] z | x6 | x6 | x6 | %73
 z2 (!>!E2 F) z | x6 | x6 | x6 | x6 | x6 | x6 | x6 | z2 (!>!E2 F) z | x6 | x6 | x6 | A6 | x6 | x6 | %88
 x6 | x6 | x6 | x6 | x6 | x6 | x6 | x6 | x6 | x6 | x6 | x6 | z2 (!>!E2 F) z | x6 | x6 | x6 | x6 | %105
 x6 | x6 | x6 | x6 | x6 | x6 | x6 | x6 | x6 | x6 | x6 ||[M:2/4] x4 | x4 | x4 | x4 | x4 | x4 || %122
[K:D] x4 | x4 | x4 | x4 | x4 | x4 | x4 | x4 | x4 | x4 | x4 | x4 | x4 | x4 | x4 | x4 | x4 | x4 | %140
 x4 | x4 | x4 | x4 | x4 | x4 | x4 | x4 | x4 | x4 | x4 | x4 | x4 | x4 | x4 | x4 | x4 | x4 | x4 | %159
 x4 | x4 | x4 | x4 | x4 | x4 | x4 | x4 | x4 ||[K:Bb] x4 | x4 | x4 | x4 | x4 | x4 | x4 | x4 | x4 | %177
 x4 | x4 | x4 | x4 | x4 | x4 | x4 | x4 | x4 | x4 | x4 | x4 | x4 | x4 ||[K:D] x4 | x4 | x4 | x4 | %195
 x4 | x4 | x4 | x4 | x4 | x4 ||[M:3/4] x6 | x6 | x6 | x6 | x6 | x6 | x6 | x6 | x6 ||[M:2/4] x4 | %211
 x4 | x4 | x4 | x4 | x4 | x4 | x4 | x4 | x4 | x4 | x4 | x4 | x4 | x4 | x4 ||[M:3/4] x6 | x6 | x6 | %229
 x6 | x6 | x6 | x6 | x6 ||[M:2/4] x4 | x4 | x4 | x4 | x4 | x4 | x4 | x4 | x4 | x4 | x4 | x4 | x4 | %247
 x4 | x4 | x4 | x4 | x4 | x4 | x4 | x4 | x4 | x4 | x4 | x4 | x4 | x4 | x4 | x4 | x4 | x4 | x4 | %266
 x4 | x4 ||[M:3/4] x6 | x6 | x6 | x6 | x6 | x6 | x6 | x6 ||[M:2/4] x4 | x4 |!8va(! x4!8va)! | x4 | %280
 x4 | x4 | x4 | x4 | x4 | x4 | x4 | x4 | x4 | x4 | x4 | x4 | x4 | x4 | x4 | x4 | x4 | x4 | x4 | %299
 x4 | x4 |] %301

